src/pos-icons/signal-off.svg

<svg height="24" viewBox="0 0 24 24" width="24" xmlns="http://www.w3.org/2000/svg"><path d="m18 3v13.18l3 3v-16.18zm-13.72 2-1.28 1.27 7.73 7.73h-2.73v7h3v-6.73l2 2v4.73h3v-1.73l3.73 3.73 1.27-1.28zm8.72 4v2.18l3 3v-5.18zm-10 9v3h3v-3z"/></svg>

<?xml version="1.0" encoding="UTF-8"?><!DOCTYPE svg PUBLIC "-//W3C//DTD SVG 1.1//EN" "http://www.w3.org/Graphics/SVG/1.1/DTD/svg11.dtd"><svg xmlns="http://www.w3.org/2000/svg" xmlns:xlink="http://www.w3.org/1999/xlink" version="1.1" id="mdi-signal-off" width="24" height="24" viewBox="0 0 24 24"><path d="M18,3V16.18L21,19.18V3H18M4.28,5L3,6.27L10.73,14H8V21H11V14.27L13,16.27V21H16V19.27L19.73,23L21,21.72L4.28,5M13,9V11.18L16,14.18V9H13M3,18V21H6V18H3Z" /></svg>
